X: 26028
T: Mazurka Des Écoliers De Saint Genest
R: mazurka
M: 3/4
K: Dminor
|:D ED|"Dm"A2 AB cd|"Fmaj7"A2AA BA|"Gm7"G2 AG FE|"F6"F2 DD ED|
"Dm"A2 AB cd|"Fmaj7"A2AA BA|"Gm7"G2 AG FG|1 "Am7"E2E:|2 "A7sus4"E2E||
|:A dc|"Bbmaj7"B2 BA Bc|"Gm7"d2dd cB|"Fmaj7"A2 AG AB|"Am7"A2AB dc|
"Bbmaj7"B2 BA Bc|"Gm7"d2dd cB|1 "Am7"A2 GF EF|E2E:|2 "Am7"A2 GF EF|"Dm"D2D||

